X:21059 
T:FOLLOW ME DOWN (reel)
B:DMI.0547
Z:Nordberg/Black
R:reel
%Q:1/4=180
M:C|
L:1/8
K:G
"A dorian"
AGAG EFGB|A^GAB cded|cBcA EFGa|1 gedB cAdc:|\
[2 gedB cAA2||
edc2 ecgc|BGdG BGdG|ecc2 egfa|gedB cAA2|
agea gedB|cBcG EFGB|A^GAB ceaf|gedB cAA2|]

%%%

